X: 8740
T: Crystal Schottische
R: barndance
M: 4/4
K: Gmajor
B>G F>A G2D2|Bd b>a g4|f2A2f2e2|d>F G>A B2A2|
B>G F>A G2D2|Bd b>a g4|f2A2 e2F2|G>A G>F G4:|
K:D
A>g f>e ^d2e2|f2 f>g a4|b2 e>f g2c2|({e}d>)c d>e f4|
A>g f>e ^d2e2|f2 f>g a4|b2 e>f ag Bc|d2d2 d4||
K:G
B>G F>A G2D2|BD b>a g4|f2A2f2e2|d>F G>A B2A2|
B>G F>A G2D2|Bd b>a g4|f2A2 e2F2|G>A G>F G4||
K:C
C>E G>c e2c2|E>G c>e g3a|(g2 f)B (e2 d)F|(c2 B)E A2G2|
C>E G>c e2c2|E>G C>e g3a|(g2 f)B (ed) AB|c2c2 c4:|

